X:1
T:James Gibb editions
T:Caro mea vere est cibus - Caldara
T:#
%%score [ 1 2 ] { ( 3 4 ) | 5 }
L:1/8
Q:1/4=72
M:4/4
K:C
V:1 treble nm="Soprano I" snm="S I"
V:2 treble nm="Soprano II" snm="S II"
V:3 treble nm="Organ"
V:4 treble 
V:5 bass 
V:1
"^Caro mea vere est cibus""^Antonio Caldara\n(1670 -1736)" z8 | z2 dA dd fe/d/ | %2
w: |Ca- ro me- a ve- re est|
 (^c/B/)A z2 z2 dA | _B2 B2 G2 cB | A2 A2 (G2 c2- | c2 B2 ^c2) d2- | d2 c2 B4 | A4 z2 ee | %8
w: ci\- * bus, ve~ re,|ve- re, ve- re est|ci- bus, ve\- *|* * * re|* est ci-|bus, ca- ro|
 eddd d^ceA | (f6 ed | ^c4 d)A (d2- | d^c/B/) c2 d2 d2 | GGcc FF f2- | f2 e2 (fd)gf | (e2 f4 e2) | %15
w: me- a, ca- ro me- a ve- re,|ve\- * *|* * re est|* * * ci- bus et|san- guis, san- guis me- us ve\-|* re, ve\- * re est|po\- * *|
 f4 z4 | z2 F2 EEAA | DD d4 c2- | c2 _B2 (_e4 | d3 c/_B/ A4) | G2 z g ccff | _BB z _e AAdd | %22
w: tus,|et san- guis, san- guis|me- us ve- re|* est po\-||tus, et san- guis, san- guis|me- us, et san- guis, san- guis|
 GG g4 f2- | f2 _e4 d2- | d2 c4 _B2 | A6 GF | (E2 e4 d2- | d2 ^cB c4) | d8 ||[M:3/4][Q:1/4=84] z6 | %30
w: me- us ve- re,|* ve- re,|* ve- re,|ve- re est|po\- * *||tus.||
 z6 | z6 | z6 | z6 |[M:3/4][Q:1/4=84][Q:1/4=84][Q:1/4=84] z6 | z2 e2 f2 | (e3 d) c2 | d2 e4 | %38
w: |||||Qui man-|du\- * cat|me- am|
 c2 A2 f2 | (f2 e2) e2 | e2 d4 | e3 e e2 | z2 e2 e2 | (e2 dc d2 | e2) B2 z2 | z2 z2 c2 | (dcBAGF | %47
w: car- nem et|bi\- * bit|me- um|san- gui- nem,|in me|ma\- * * *|* net|et|e\- * * * * *|
 E2 e4- | e2 A2 d2- | d2) c2 B2 | (c2 B4) | A4 z2 | z6 | z6 | z6 | z2 d2 f2 | (e3 d) ^c2 | d4 e2 | %58
w: ||* go in|il\- *|lo,||||qui man-|du\- * cat|me- am|
 ^c2 A2 _B2 | (_B2 A2) A2 | A2 G4 | A3 A A2 | z6 | z6 | z2 f2 f2 | (f2 ed e2 | f2) c2 c2 | %67
w: car- nem et|bi\- * bit|me- um|san- gui- nem,|||in me|ma\- * * *|* net et|
 (dc_BAGF | E2 e4- | e2 A2 d2 | gfedc_B | A2) A2 A2 | G6 | F4 F2 | (GA_Bcde | f6- | f2) e2 e2 | %77
w: e\- * * * * *||||* go in|ìl-|lo, et|e\- * * * * *||* go in|
 d6 | c4 z2 | z6 | z6 | z2 c2 d2 | (c3 _B) A2 | _B2 c4 | A2 F2 _B2 | (_B2 A2) A2 | G4 G2 | F4 F2 | %88
w: il-|lo,|||qui man-|du\- * cat|me- am|car- nem et|bi\- * bit|me- um|san- gui-|
 E2 A2 A2 | (A2 GF G2 | A2) E2 z2 | z2 z2 f2 | (gfedc_B | A4 f2- | f2 ed e2- | e2) A2 d2- | %96
w: nem, in me|ma- * * *|* net|et|e\- * * * * *|||* go in|
 d2 ^c4 | d4 z2 | z2 z2 E2 | (FGAB^cd | e6- | e2 A2 f2 | (gfedc_B | A6- | A2 G2 F2 | %105
w: * il-|lo,|et|e\- * * * * *||* go, et|e\- * * * * *|||
[Q:1/4=81] _B6- |[Q:1/4=79] B2)[Q:1/4=77] A2[Q:1/4=76] G2 |[Q:1/4=75] F2[Q:1/4=73] E4) | %108
w: |* go in|il\- *|
[Q:1/4=72] D6 |] %109
w: lo.|
V:2
 z2 AD GG _BA/G/ | (F/E/)D z2 z4 | z2 AE F2 F2 | D2 GF E2 E2 | (F6 E2 | ^F2 G4) F2 | ^G2 (A4 G2) | %7
w: Ca- ro me- a ve re est|ci\- * bus,|ve- re, ve- re,|ve- re est ci- bus,|ve\- *|* * re|est ci\- *|
 A2 AA AGGG | GF z2 z4 | z2 AD (_B4- | B2 AG FE)FG | E4 D4 | z4 z2 d2 | GGcc FF _B2- | B2 AA G4 | %15
w: bus, ca- ro me- a, ca- ro|me- a|ve- re, ve\-|* * * * * re est|ci- bus|et|san- guis, san- guis me- us ve\-|* re est po-|
 F2 F2 EEAA | DD d4 c2- | c2 _B2 (_e4 | d6 c2 | _BA G4 ^F2) | G2 _B4 A2- | A2 G4 F2- | %22
w: tus, et san- guis, san- guis|me- us ve- re|* est po\-|||tus, ve- re,|* ve- re,|
 FFED ^C2 Dd | GGcc FF z _B | EEAA DD G2- | G2 FE (FE D2- | D2 ^C2 F4 | E8 | D8 || %29
w: * ve- re est po- tus, et|san- guis, san- guis me- us, et|san- guis, san- guis me- us ve\-|* re est po\- * *|||tus.|
[M:3/4] z2 A2 _B2 | (A3 G) F2 | G2 A4 | F2 D2 _B2 | _B2 A2) A2 |[M:3/4] A2 G4 | A3 A A2 | z6 | z6 | %38
w: Qui man-|du\- * cat|me- am|car- nem et|bi\- * bit|me- um|san- gui- nem,|||
 z6 | z6 | z2 A2 A2 | (A2 ^G^F G2 | A2) E2 z2 | z6 | z4 B2 | (cBAGFE | D2 d4- | d2 G2 c2 | fedcBA | %49
w: ||in me|ma\- * * *|* net||et|e\- * * * * *||||
 ^G2) A2 B2 | (A4 ^G2) | A4 z2 | z6 | z6 | z2 A2 _B2 | (A3 G) F2 | G4 A2 | F2 D2 z2 | z2 z2 F2 | %59
w: * go in|il\- *|lo,|||qui man-|du\- * cat|me- am|car- nem|et|
 E4 e2 | d4 d2 | ^c3 c c2 | z2 d2 d2 | (d2 ^cB c2 | d2) A2 z2 | z2 z2 _B2 | (c_BAGFE | D2 d4- | %68
w: bi- bit|me- um|san- gui- nem,|in me|ma\- * * *|* net|et|e\- * * * * *||
 d2 G2 c2 | fedc_BA | G6- | G2) C2 F2- | F2 E4 | F4 z2 | z2 z2 G2 | (A_Bcdef | g2) c2 c2- | c2 B4 | %78
w: |||* go in|* il-|lo,|et|e\- * * * * *|* go in|* il-|
 c4 z2 | z6 | z6 | z6 | z2 F2 A2 | (G3 F) E2 | F4 G2 | E2 C2 F2 | (F2 E2) E2 | D4 D2 | ^C3 C C2 | %89
w: lo,||||qui man-|du\- * cat|me- am|car- nem et|bi\- * bit|me- um|san- gui- nem,|
 z2 d2 d2 | (d2 ^cB c2 | d2) A2 z2 | z2 z2 e2 | (fedc_BA | G3 F E2 | F2) F2 F2 | E6 | D4 D2 | %98
w: in me|ma\- * * *|* net|et|e\- * * * * *||* go in|il-|lo, et|
 (EFGAB^c | d6- | d2) ^c2 e2 | (fedc_BA | G6- | G2 F2 E2 | F4 f2- | f2 _e2 d2 | ^c3) c d2- | %107
w: e\- * * * * *||* go et|e\- * * * * *|||||* go in|
 d2 ^c4 | d6 |] %109
w: * il-|lo.|
V:3
"^largo" [FAd]2 [FA]2 [EG_B]4 | A4 G2 A_B | [^CE]3 [CE] [A,DF]3 [DFA] | %3
 [DG_B]3 [DGB] [EG]2 [EGc]2 | [CA]4- [CG]4 | [C^F]2 [=B,G]2- [^CG]2 [DF][FB] | ^G2 A4 G2 | %7
 A4- A =G2 G- | [EG][DF]A_B E3 [EG] | [DF]2 A2- [F_B]4 | _B2 AG F4 | E4 [A,DF]3 [A,DF] | %12
 [G,CG]2- [G,_B,E]2 [F,A,F]2 [DF_B]2- | [FG]2 [EG]2 [A,F]2 [DB]2- | [CEB]2 [FA]2- [DFG]2 [CEG]2 | %15
 [CFA]4 [CEG]2 [A,EA]2- | [A,DF]2 d4 c2- | c2 BA G3 A | D2 GF _EFGA | _Bcd_e d3 c | %20
 [DG_B]2 [dg]2 [ce]2- [cf]2 | [_Bd]2 _e4 d2- | d2 [=EGc][DF_B] [^CEA][Ge] [Fd]2- | %23
 [FGd]2 [_E_e]2- [Fe]2 [F_Bd]2 | [Gd]2 [Ac]4 _B2 | A8- | A3 G FGA_B | A6 G2 | [A,D^F]8 || %29
[M:3/4] [A,=F]4 [_B,D]2 | [A,F]6 | E6 | [A,F]4 [F_B]2- | B2 A4- |[M:3/4] A2 G4 | [^CA]4 [FA]2 | %36
 [EA=c]6 | [Bd]6 | [EAc]4 [CA]2 | B6 | A6- | A2 ^G^F G2 | [A,EA]4 [EA]2 | A6 | [B,E^G]4 [EGB]2 | %45
 [EAc]6 | [DGd]6- | d2 cB c2 | [FA]4- [FB]2 | [E^G]2- [EA]2 B2 | [Ac]2- [AB]2 G2 | [^CEA]4 z2 | %52
 z2 [A^c]2- [Ad]2 | _B2 AGFE | D2 F2 D2 | [DA]4 [FAd]2 | B4 c2 | d2 A2 [_Be]2 | [A^c]4 f2 | e4 e2 | %60
 d4 d2 | [EA^c]6 | [DAd]6- | d2 ^cB c2 | [FAd]4 [Adf]2- | f2 ed e2 | f4 c2 | [Fd]6- | d2 c2 _B2 | %69
 [FA]4 [F_B]2 | c4 _B2 | [CA]6 | G6 | [A,CF]4 [CFA]2 | [G,CG]6 | [A,DF]6- | [CFG]2 [CEG]2 [CEc]2- | %77
 [Ac]2 [GB]2 F2 | [CEc]4 z2 | z2 [Ge]2 [Ff]2- | [Fd]2 c_BAG | F2 A2 F2 | [CFA]6 | [G_B]6 | %84
 A4 [G_B]2- | [GB]2 A4 | G6 | [DF]6 | E4 A2- | A2 G2- [Gd]2 | d2 ^c2 [ce]2 | agfedc | _B2 G2 B2 | %93
 [CFA]4 [CA]2 | G6 | F4 [DFA]2- | [D_B]2 [^CA]2- [CG]2 | [A,DF]4 [A,DF]2 | [A,^CE]6 | [A,F]6 | %100
 [EA]6 | [DFA]6 | [DG_B]6 | [EGA]6 | [DFA]4 x2 | _B6- | B2 A2 G2 | _B2 A2 G2 | [A,D^F]6 |] %109
V:4
 z8 | F3 E D4 | x8 | x8 | x8 | D4 A,3 D | B,2 =C2 D4 | [^CE]3 C D2 [A,E]2- | A,2 D3 ^C A,2- | %9
 A,2 [DF]4- [DE]2 | [^CE]4 [A,D]4- | [=B,D]2 ^C2 x4 | x8 | C3 _B, x2 GF | x8 | x8 | %16
 x2 [F_B]-[FA] [EG]2 [FA][EG] | [DF]4- [D_E]2 [CE]2 | [CD]2 _B,2 G,2 G2- | G4 GA ^F2 | x2 _B4 A2- | %21
 A2 G2- [GA]2 [FA]2 | [FG]2 x2 x4 | x2 Gc _BA x2 | =E4 D2- [DG]2 | [EG]4 [DF]4- | %26
 [DE]2 [^CE]2 [DF]4- | D4 ^C4 | x8 ||[M:3/4] x6 | x6 | _B,2 A,4 | x6 | E4 FE |[M:3/4] D4 ED | x6 | %36
 x6 | F2 E4 | x6 | D2 E2 B,2 | C2 D2 A,2 | [B,E]6 | x6 | C2 D2 A,2 | x6 | x6 | x6 | [EG]6- | %48
 E4 D2 | B,2 C2 [EG]2- | E2 F2 ED | x6 | x2 E2 D2- | [DE]4 ^C2 | A,4 _B,2 | A,4 x2 | [EG]6 | %57
 [DF]4 E2- | E4 [F_B]2- | [GB]2 A2 [EA]2- | [FA]2 G2 [DG]2 | x6 | x6 | [EG]6 | x6 | [G_B]6 | %66
 [Ac]4 [FA]2 | _B4 A2 | [EG]6- | E4 D2 | [CG]6- | G2 FE F2- | [DF]2 [CE]-[CD] [_B,E]2 | x6 | x6 | %75
 x6 | x6 | D6 | x6 | x2 c4 | G2- [EG]4 | C4 D2 | x6 | D2 C2 E2 | F4 D2 | E4 [DF]2- | %86
 [DF]2 [CE]2- [_B,E]2 | A,2 !courtesy!=B,4 | ^C6 | D4 x2 | [EA]4 A2- | [Ad]4 z2 | D2 [EG]4 | %93
 x4 F2- | [CF]2 [CE]2 [_B,E]2 | [A,E]2 D^C x2 | E6 | x6 | x6 | D6- | D2 ^CB, C2 | x6 | x6 | x6 | %104
 x4 [FA]2- | [FA]2 [EG]2 [DF]2 | [^CE]4 D2 | [DF]2 [^CE]4 | x6 |] %109
V:5
 D,2 D4 ^C2 | D3 C _B,2 F,G, | A,3 A, D,3 D, | G,3 G, C2 C,2 | F,2 F,,2 C,4 | D,2 G,2 A,2 D,2 | %6
w: * ~~~~~~~~~~~~~~~~~~~4 *|* * 6 * *|8 * * *|* 7 * 7|* * 4~~~~~~~~~~~~3|7 * 7 *|
w: * ~~~~~~~~~~~~~~~~~~~2 *||||* * 5||
 E,8 | A,,3 A,, B,,2 ^C,2 | D,2 F,G, A,2 ^C,2 | D,4 G,4 | A,4 D,4- | G,2 A,2 D,3 D, | %12
w: 7~~~~~~~~6~~~~~~~~5|* * 7~~~~~~~6 5|9~~~~~~8 * * 4 *|* 7~~~~~6|9~~~~~~~~8~~~~~7 *|6 * * *|
w: ~~~~~~~~~~4~~~~~~~~4||4~~~~~~3 * * * *|||5 * * *|
 E,2 C,2 D,2 _B,,2 | C,4 D,2 _B,,2 | C,2 D,2 _B,,2 C,2 | F,,2 F,2 C,2 ^C,2 | D,2 _B,,2 C,2 A,,2 | %17
w: |4~~~~~~~~~~~~~~~~~~~~~~3 * 6~~~~~5|7 5 6 *||* * 9 6|
w: ||* * 5 *|||
 _B,,4 C,4 | G,4 C,D,_E,F, | G,A,_B,C D2 D,2 | G,4 A,4 | _B,2 C2 D2 D,2 | _B,2 G,2 A,2 B,2 | %23
w: 9~~~~~~~~~~~~8 9~~~8|4 9 * 6 *|* * * * 4 *|* 9~~~~~~~~~~~~~~~~~~~~~~~8|7 * 4 *|6 6~~~~~~~~~5 7 *|
w: |||||5 * * *|
 !courtesy!=B,2 C2 D2 _B,2 | C2 A,2 ^F,2 G,2 | ^C,4 D,4 | A,2 A,,2 D,E,F,G, | A,8 | D,8 || %29
w: 6 * 9 *|9 5 6 *|6 *|4 * 9 * * *|4||
w: 5 * * *|* * 5 *|5 *||||
[M:3/4] D,4 G,2 | D,6- | D,2 ^C,4 | D,6 | C,6 |[M:3/4] _B,,6 | A,,4 D,2 | A,,4 A,2- | A,2 ^G,4 | %38
w: ||4 6|~~~~~~~~~~~~~~~~~~~~~~~~~~~6|7~~~~~6|7~~~~~~~~~~~~6|||4 6|
w: ||2 *||||||2 *|
 A,6 | !courtesy!=G,6 | F,6 | E,6 | C,6 | F,6 | E,6 | A,,6 | B,,6 | C,6 | D,6 | E,6 | A,2 D,2 E,2 | %51
w: 5~~~~~~~~~~~~~~~~~~~~6|7~~~~~6|7~~~~~~6|4|6|7~~~~~~6||||9~~~~8|9~~~~~~~~~8|7~~~~~~~~6~~~~~~5||
w: |||||||||||~~~~~~~~~~~4||
 A,,2 A,2 _B,2 | A,3 G, F,2 | G,2 A,4 | F,2 D,2 G,2 | F,3 E, D,2 | E,4 A,2 | D,4 G,2 | A,4 D2 | %59
w: ||6 4||6 * *||* 6|* 6|
w: ||5 *||||||
 ^C4 =C2 | B,2 _B,4 | A,2 A,2 G,2 | F,6 | E,6 | D,6 | G,6 | F,6 | _B,,6 | C,6 | D,6 | E,6 | F,6 | %72
w: 7~~~~6 *|7 6||6|7~~~~~~6||7~~~~~6|||9~~~~~8|9~~~~~~~~8||9~~~~~~~8|
w: |||||||||||||
 _B,,2 C,4 | F,,4 F,2 | E,6 | D,6 | C,4 A,2 | F,2 G,2 G,,2 | C,2 C2 D2 | C3 _B, A,2 | _B,2 C4 | %81
w: 6 *||||4~~~~~~~3 *|6 * *||||
w: 5 *|||||5 * *||||
 A,2 F,2 _B,,2 | F,6- | F,2 E,2 C,2 | D,4 _B,,2 | C,4 D,2 | _B,,2 C,2 ^C,2 | D,2 ^G,,4 | A,,6 | %89
w: ||4 * *|5 6|7~~~~~~~~6 5|6 * *|* 7||
w: ||2 * *|||5 * *|* 5||
 _B,,6 | A,,4 A,2 | F,E,D,C, _B,,A,, | G,,2 C,4 | F,4 F,,2 | C,4 ^C,2 | D,6 | G,,2 A,,4 | D,4 D,2 | %98
w: 7~~~~~6|4~~~~~~~~3 *|6 * * * * *|||4~~~~3 *|9~~~~~~8|6 *||
w: |||||||5 *||
 A,6 | D,6 | A,,6 | D,6 | G,6 | ^C,6 | D,6 | G,6 | A,4 _B,2 | G,2 A,4 | D,6 |] %109
w: ||4|9~~~~~~~~8||6||7~~~~~~6~~~~~5|9~~~~~~~8 6|7 *||
w: |||||5||||||

